X: 6
T: Christmas Is Coming v.2
P: piffero secondo c0008
O: English traditional
%R: march
F: http://ancients.sudburymuster.org/mus/col/pdf/carolsF.pdf
Z: 2020 John Chambers <jc:trillian.mit.edu>
M: 3/4
L: 1/8
K: G
V: 1
V: 2
[|\
G2A2 B2c2 | d2e2 d2B2 | c2d2 e2f2 | g2d2 B2d2 | G2A2 B2c2 | d2e2 d2B2 |
c2A2 d2f2 | g2a2 g2f2 | e2e2 d2c2 | B3c  BAGF | E2A2 d2c2 | B2d2 B4 |]
%%text The 2nd voice may be played an octave higher.


